!!!OTL: Sleepy Time Gal
!!!COM: Lorenzo, Ange
!!!COM: Whiting, Richard A.
!!!LAR: Frey, Hugo
!! "Sleepy Time Gal" by Ange Lorenzo and Richard A. Whiting
!! from "Barbershop Memories" compiled and arranged by Hugo Frey
!! copyright 1975 by EMI Music Publ. Ltd.; pp. 30-31; in G major
**kern	**kern	**kern	**kern
*Ivox	*Ivox	*Ivox	*Ivox
*M4/4	*M4/4	*M4/4	*M4/4
*G:	*G:	*G:	*G:
=1	=1	=1	=1
8GG	8D	8B	8d
8GG	8D	8A	8d
8GG	8D	8G	8B
[8GG	[8D	[8E	[8B
2GG_	4D]	2E_	4B]
.	[4B	.	4g
=2	=2	=2	=2
4GG]	4B]	4E]	4e
4BB	4G	4D	4d
4BB	4G	4E	4d
4BB-	4G	4E-	4c#
=3	=3	=3	=3
8AA	8F#	8D	8cn
8AA	8F#	8F#	8c
8AA	8F#	8A	8c
[8D	[8F#	[8c	[8d
2D_	4F#]	2c_	2d_
.	[4B	.	.
=4	=4	=4	=4
4D]	2.A]	2.c]	2.d]
8.D	.	.	.
16E	.	.	.
8.F#	.	.	.
16E	.	.	.
4D	4r	4r	4r
=5	=5	=5	=5
8D	8F#	8c	8d
8D	8F#	8B	8d
8D	8F#	8d	8B
[8D	[8F#	[8B	[8d
4D]	2F#_	2B_	2d_
8.D	.	.	.
16C#	.	.	.
=6	=6	=6	=6
4D	4F#]	4B]	4d]
4D	4F#	4F#	4c
4D	4F#	4B	4d
4AA	4c	4F#	4d
=7	=7	=7	=7
8GG	8B	8A	8d
8GG	8B	8F#	8d
8GG	8B	8A	8d
[8GG	[8B	[8F#	[8d
4GG]	2B_	2F#_	2d_
4D	.	.	.
=8	=8	=8	=8
4GG	4B]	4F#]	4d]
4G	4B	4D	4d
4F#	4A#	4E	4c#
4Fn	4An	4D#	4cn
=9	=9	=9	=9
8E	8G#	8E	8B
8E	8E	8G#	8d
8E	8G#	8B	8d
[8E	[8G#	[8dn	[8e
4E]	2G#_	2d_	2e_
4BB	.	.	.
=10	=10	=10	=10
4E	4G]	4d]	4e]
4E	4G#	4c#	4e
4F#	4A	4cn	4d#
4E	4B	4G#	4dn
=11	=11	=11	=11
4E	4Gn	[1B	4c#
8.AA	8.E	.	8.c#
16AA	16F#	.	16d
4AA	4G	.	4e
8.AA	8.E	.	8.c#
16AA	16F#	.	16d
=12	=12	=12	=12
4AA	4G	4B]	4e
4AA	4G	4E	4c#
4AA	4F#	4F#	4c#
4AA	4E	4G	4c#
=13	=13	=13	=13
8AA	8G	8A	8c#
8AA	8F#	8F#	8c#
8AA	8G	8A	8c#
[8AA	[8A	[8F#	[8c#
2AA]	2A]	2F#]	2c#]
=14	=14	=14	=14
8AA	8G	8A	8c#
8AA	8F#	8F#	8c#
8AA	8G	8A	8c#
[8AA	[8A	[8F#	[8c#
8AA]	8A]	8F#]	8c#]
8AA	8G	8E	8c#
4AA	4A	4F#	4c#
=15	=15	=15	=15
[2D	[2F#	[2A	[2cn
8.D]	8.F#]	8.A]	8.c]
16D	16A	16d	16f#
8.D	8.G#	8.c#	8.e#
16D	16A	16d	16f#
=16	=16	=16	=16
4D	4F#	8.cn	4e
.	.	16A	.
4r	4r	8.F#	4r
.	.	16D	.
2r	2r	8.E	2r
.	.	16D	.
.	.	8.E	.
.	.	16D	.
=17	=17	=17	=17
8GG	8D	8B	8d
8GG	8D	8A	8d
8GG	8D	8G	8B
[8GG	[8D	[8E	[8B
2GG_	4D]	2E_	4B]
.	[4B	.	[4g
=18	=18	=18	=18
4GG]	4B]	4E]	4e]
4BB	4G	4D	4d
4BB	4G	4E	4d
4BB-	4G	4E-	4c#
=19	=19	=19	=19
8AA	8F#	8D	8cn
8AA	8F#	8F#	8c
8AA	8F#	8A	8c
[8D	[8F#	[8c	[8d
2D_	4F#]	2c_	2d_
.	[4B	.	.
=20	=20	=20	=20
4D]	2.A]	2.c]	2.d]
8.D	.	.	.
16E	.	.	.
8.F#	.	.	.
16E	.	.	.
4D	4r	4r	4r
=21	=21	=21	=21
8D	8F#	8c	8d
8D	8F#	8B	8d
8D	8F#	8d	8B
[8D	[8F#	[8B	[8d
4D]	2F#_	2B_	2d_
8.D	.	.	.
16C#	.	.	.
=22	=22	=22	=22
4D	4F#]	4B]	4d]
4Cn	4F#	4A	4e
4BB	4F#	4B	4d#
4BB	4A	4F#	4d#
=23	=23	=23	=23
8BB	8B	8A	8f#
8BB	8B	8F#	8d#
8BB	8B	8A	8f#
[8E	[8B	[8G	[8e
4E]	2B_	2G_	2e_
4BB	.	.	.
=24	=24	=24	=24
4E	4B]	4G]	4e]
4E	4B	4G	4e
4E	4G	4A	4c#
4E-	4G	4A#	4c#
=25	=25	=25	=25
8En	8G	8B	8c#
8E	8G	8An	8c#
8E	8G	8B	8c#
[8E	[8G	[8A	[8c#
4E]	2G]	2A]	2c#]
{16AA	.	.	.
16BB}	.	.	.
8C	.	.	.
=26	=26	=26	=26
2C#	4r	4r	4r
.	4B	4G	4e
4AA	4c#	4A	4f#
4AA	4c#	4B	4g
=27	=27	=27	=27
8D	8B	8e	8g
8D	8B	8d	8g
8D	8B	8e	8g
[8D	[8B	[8d	[8g
4D]	2B_	2d_	4g]
4A	.	.	4fn
=28	=28	=28	=28
4G#	4B]	4d]	4e
4BB	4G#	4E	4d
4BB	4A	4Fn	4d
4BB	4G#	4E	4d
=29	=29	=29	=29
8AA	8E	8c	8e
8AA	8E	8B	8d
4AA	4E	4A	4c
8AA	8Gn	8c	8e-
8AA	8G	8B	8d
4AA	4G	4A	4c
=30	=30	=30	=30
8D	8F#	8c	8d
8D	8F#	8B	8d
8D	8F#	8A	8d
[8D	[8F#	[8d	[8c
8D]	8F#]	8d]	8c]
8D	8F#	8A	8c
4D	4F#	4B	4d
=31	=31	=31	=31
2.GG	2.D	2.G	2.B
[4G	4A	4c	4e
=32	=32	=32	=32
1G;]	1B;	1d;	1g;
==	==	==	==
*-	*-	*-	*-
